mobile/24/svg/device-desktop-send-24.svg

<svg width="24" height="24" viewBox="0 0 24 24" fill="none" xmlns="http://www.w3.org/2000/svg">
<path d="M4.5 4C3.11975 4 2 5.11975 2 6.5V9.5H3.75V6.5C3.75 6.08625 4.08625 5.75 4.5 5.75H19.5C19.9138 5.75 20.25 6.08625 20.25 6.5V16.5C20.25 16.9138 19.9138 17.25 19.5 17.25H4.5C4.08625 17.25 3.75 16.9138 3.75 16.5V14.5H2V16.5C2 17.8802 3.11975 19 4.5 19H1V20.75H23V19H19.5C20.8802 19 22 17.8802 22 16.5V6.5C22 5.11975 20.8802 4 19.5 4H4.5Z" fill="black"/>
<path d="M9.28 14.996C8.808 15.469 8 15.134 8 14.466V12.75H1V11.25H8V9.53401C8 8.86601 8.808 8.53101 9.28 9.00401L11.746 11.469C12.039 11.762 12.039 12.237 11.746 12.53L9.28 14.996Z" fill="black"/>
</svg>

<svg width="24" height="24" fill="none" xmlns="http://www.w3.org/2000/svg"><path d="M4.5 4A2.5 2.5 0 0 0 2 6.5v3h1.75v-3a.75.75 0 0 1 .75-.75h15a.75.75 0 0 1 .75.75v10a.75.75 0 0 1-.75.75h-15a.75.75 0 0 1-.75-.75v-2H2v2A2.5 2.5 0 0 0 4.5 19H1v1.75h22V19h-3.5a2.5 2.5 0 0 0 2.5-2.5v-10A2.5 2.5 0 0 0 19.5 4h-15z" fill="#000"/><path d="M9.28 14.996a.75.75 0 0 1-1.28-.53V12.75H1v-1.5h7V9.534a.75.75 0 0 1 1.28-.53l2.466 2.465a.75.75 0 0 1 0 1.061L9.28 14.996z" fill="#000"/></svg>
